X:103
T: Harter Entschluss
N: A0117
O: Europa, Mitteleuropa, Deutschland
N: Forster III. 1549 No. 61.
R: Romanze, Ballade, Lied
M: 4/2
L: 1/4
K: F
F2 | F2A2G2F2 | E4F2
G2 | A4A2B2G4 | F6
F2 | F2A2G2F2 | E4F2
G2 | A4A2B2G4 | F6
F2 | A2G2A2B2 | c4F2
B2 | A2A2A2GF | E4F2
G2 | A2B2c2A2G4 | F6

